media/icons/reading.svg

<svg height="512" viewBox="0 0 58 58" width="512" xmlns="http://www.w3.org/2000/svg"><g id="Page-1" fill="none" fill-rule="evenodd"><g id="026---Open-Book" fill-rule="nonzero"><path id="Shape" d="m7 7.47v-6.47c.00027313-.33524358.16851452-.64804642.44807141-.83307688.2795569-.18503047.63323127-.21766827.94192859-.08692312 20.61 8.64 20.61 13.42 20.61 13.42v7.5z" fill="#e4c05c"/><path id="Shape" d="m51 7.47v-6.47c-.0002731-.33524358-.1685145-.64804642-.4480714-.83307688-.2795569-.18503047-.6332313-.21766827-.9419286-.08692312-20.61 8.64-20.61 13.42-20.61 13.42v7.5z" fill="#b19046"/><path id="Shape" d="m53.55 6.19-20 10c-.3382546.167288-.551676.5126426-.55.89v-.08c0-.5522847-.4477153-1-1-1h-6c-.5522847 0-1 .4477153-1 1v.08c.001676-.3773574-.2117454-.722712-.55-.89l-20-10c-.30951825-.15596925-.67772786-.14054526-.97311784.04076307-.29538998.18130834-.47583328.50264372-.47688216.84923693v39.77c-.00434232.3781033.20988566.7247631.55.89l20 10c.3095182.1559692.6777279.1405453.9731178-.0407631.29539-.1813083.4758333-.5026437.4768822-.8492369v.15c0 .5522847.4477153 1 1 1h6c.5522847 0 1-.4477153 1-1v-.15c.0010489.3465932.1814922.6679286.4768822.8492369.2953899.1813084.6635996.1967323.9731178.0407631l20-10c.3401143-.1652369.5543423-.5118967.55-.89v-39.77c-.0010489-.34659321-.1814922-.66792859-.4768822-.84923693-.2953899-.18130833-.6635996-.19673232-.9731178-.04076307z" fill="#c03a2b"/><rect id="Rectangle-path" fill="#e64c3c" height="42" rx="1" width="8" x="25" y="16"/><path id="Shape" d="m2 19h4.5c1.38071187 0 2.5 1.1192881 2.5 2.5 0 1.3807119-1.11928813 2.5-2.5 2.5h-4.5c-1.1045695 0-2-.8954305-2-2v-1c0-1.1045695.8954305-2 2-2z" fill="#fdd7ad"/><path id="Shape" d="m2 29h4.5c1.38071187 0 2.5 1.1192881 2.5 2.5 0 1.3807119-1.11928813 2.5-2.5 2.5h-4.5c-1.1045695 0-2-.8954305-2-2v-1c0-1.1045695.8954305-2 2-2z" fill="#fdd7ad"/><path id="Shape" d="m2 34h3.5c1.38071187 0 2.5 1.1192881 2.5 2.5 0 1.3807119-1.11928813 2.5-2.5 2.5h-3.5c-1.1045695 0-2-.8954305-2-2v-1c0-1.1045695.8954305-2 2-2z" fill="#f9c795"/><path id="Shape" d="m2 24h6.5c.66304122 0 1.29892601.2633921 1.767767.732233.4688409.468841.732233 1.1047258.732233 1.767767 0 .6630412-.2633921 1.298926-.732233 1.767767-.46884099.4688409-1.10472578.732233-1.767767.732233h-6.5c-1.1045695 0-2-.8954305-2-2v-1c0-1.1045695.8954305-2 2-2z" fill="#f9c795"/><path id="Shape" d="m51 19h4.5c1.3807119 0 2.5 1.1192881 2.5 2.5 0 1.3807119-1.1192881 2.5-2.5 2.5h-4.5c-1.1045695 0-2-.8954305-2-2v-1c0-1.1045695.8954305-2 2-2z" fill="#fdd7ad" transform="matrix(-1 0 0 -1 107 43)"/><path id="Shape" d="m51 29h4.5c1.3807119 0 2.5 1.1192881 2.5 2.5 0 1.3807119-1.1192881 2.5-2.5 2.5h-4.5c-1.1045695 0-2-.8954305-2-2v-1c0-1.1045695.8954305-2 2-2z" fill="#fdd7ad" transform="matrix(-1 0 0 -1 107 63)"/><g fill="#f9c795"><path id="Shape" d="m52 34h3.5c1.3807119 0 2.5 1.1192881 2.5 2.5 0 1.3807119-1.1192881 2.5-2.5 2.5h-3.5c-1.1045695 0-2-.8954305-2-2v-1c0-1.1045695.8954305-2 2-2z" transform="matrix(-1 0 0 -1 108 73)"/><path id="Shape" d="m49 24h6.5c1.3807119 0 2.5 1.1192881 2.5 2.5 0 1.3807119-1.1192881 2.5-2.5 2.5h-6.5c-1.1045695 0-2-.8954305-2-2v-1c0-1.1045695.8954305-2 2-2z" transform="matrix(-1 0 0 -1 105 53)"/></g></g></g></svg>

<?xml version="1.0" encoding="UTF-8" standalone="no"?>
<svg
   height="512"
   viewBox="0 0 58 58"
   width="512"
   version="1.1"
   id="svg1319"
   sodipodi:docname="reading.svg"
   inkscape:version="1.2 (1:1.2.1+202207142221+cd75a1ee6d)"
   xmlns:inkscape="http://www.inkscape.org/namespaces/inkscape"
   xmlns:sodipodi="http://sodipodi.sourceforge.net/DTD/sodipodi-0.dtd"
   xmlns="http://www.w3.org/2000/svg"
   xmlns:svg="http://www.w3.org/2000/svg">
  <defs
     id="defs1323" />
  <sodipodi:namedview
     id="namedview1321"
     pagecolor="#ffffff"
     bordercolor="#000000"
     borderopacity="0.25"
     inkscape:showpageshadow="2"
     inkscape:pageopacity="0.0"
     inkscape:pagecheckerboard="0"
     inkscape:deskcolor="#d1d1d1"
     showgrid="false"
     inkscape:zoom="1.7128906"
     inkscape:cx="256"
     inkscape:cy="328.10034"
     inkscape:window-width="1920"
     inkscape:window-height="1031"
     inkscape:window-x="0"
     inkscape:window-y="25"
     inkscape:window-maximized="1"
     inkscape:current-layer="svg1319" />
  <g
     id="Page-1"
     fill="none"
     fill-rule="evenodd"
     transform="matrix(1,0,0,0.88202658,0,9.5678654e-5)">
    <g
       id="026---Open-Book"
       fill-rule="nonzero">
      <path
         id="Shape"
         d="M 7,7.47 V 1 C 7.0002731,0.66475642 7.1685145,0.35195358 7.4480714,0.16692312 7.7276283,-0.01810735 8.0813027,-0.05074515 8.39,0.08 29,8.72 29,13.5 29,13.5 V 21 Z"
         fill="#e4c05c" />
      <path
         id="path1294"
         d="M 51,7.47 V 1 C 50.999727,0.66475642 50.831485,0.35195358 50.551929,0.16692312 50.272372,-0.01810735 49.918697,-0.05074515 49.61,0.08 29,8.72 29,13.5 29,13.5 V 21 Z"
         fill="#b19046" />
      <path
         id="path1296"
         d="m 53.55,6.19 -20,10 C 33.211745,16.357288 32.998324,16.702643 33,17.08 V 17 c 0,-0.552285 -0.447715,-1 -1,-1 h -6 c -0.552285,0 -1,0.447715 -1,1 v 0.08 c 0.0017,-0.377357 -0.211745,-0.722712 -0.55,-0.89 l -20,-10 C 4.1404817,6.0340308 3.7722721,6.0494547 3.4768822,6.2307631 3.1814922,6.4120714 3.0010489,6.7334068 3,7.08 v 39.77 c -0.00434,0.378103 0.2098857,0.724763 0.55,0.89 l 20,10 c 0.309518,0.155969 0.677728,0.140545 0.973118,-0.04076 C 24.818508,57.517929 24.998951,57.196593 25,56.85 V 57 c 0,0.552285 0.447715,1 1,1 h 6 c 0.552285,0 1,-0.447715 1,-1 v -0.15 c 10e-4,0.346593 0.181492,0.667929 0.476882,0.849237 0.29539,0.181308 0.6636,0.196732 0.973118,0.04076 l 20,-10 C 54.790114,47.574763 55.004342,47.228103 55,46.85 V 7.08 C 54.998951,6.7334068 54.818508,6.4120714 54.523118,6.2307631 54.227728,6.0494547 53.859518,6.0340307 53.55,6.19 Z"
         fill="#c03a2b" />
      <rect
         id="Rectangle-path"
         fill="#e64c3c"
         height="42"
         rx="1"
         width="8"
         x="25"
         y="16" />
      <path
         id="path1299"
         d="M 2,19 H 6.5 C 7.8807119,19 9,20.119288 9,21.5 9,22.880712 7.8807119,24 6.5,24 H 2 C 0.8954305,24 0,23.104569 0,22 v -1 c 0,-1.10457 0.8954305,-2 2,-2 z"
         fill="#fdd7ad" />
      <path
         id="path1301"
         d="M 2,29 H 6.5 C 7.8807119,29 9,30.119288 9,31.5 9,32.880712 7.8807119,34 6.5,34 H 2 C 0.8954305,34 0,33.104569 0,32 v -1 c 0,-1.10457 0.8954305,-2 2,-2 z"
         fill="#fdd7ad" />
      <path
         id="path1303"
         d="M 2,34 H 5.5 C 6.8807119,34 8,35.119288 8,36.5 8,37.880712 6.8807119,39 5.5,39 H 2 C 0.8954305,39 0,38.104569 0,37 v -1 c 0,-1.104569 0.8954305,-2 2,-2 z"
         fill="#f9c795" />
      <path
         id="path1305"
         d="m 2,24 h 6.5 c 0.6630412,0 1.298926,0.263392 1.767767,0.732233 C 10.736608,25.201074 11,25.836959 11,26.5 11,27.163041 10.736608,27.798926 10.267767,28.267767 9.798926,28.736608 9.1630412,29 8.5,29 H 2 C 0.8954305,29 0,28.104569 0,27 v -1 c 0,-1.10457 0.8954305,-2 2,-2 z"
         fill="#f9c795" />
      <path
         id="path1307"
         d="m 51,19 h 4.5 c 1.380712,0 2.5,1.119288 2.5,2.5 0,1.380712 -1.119288,2.5 -2.5,2.5 H 51 c -1.104569,0 -2,-0.895431 -2,-2 v -1 c 0,-1.10457 0.895431,-2 2,-2 z"
         fill="#fdd7ad"
         transform="rotate(180,53.5,21.5)" />
      <path
         id="path1309"
         d="m 51,29 h 4.5 c 1.380712,0 2.5,1.119288 2.5,2.5 0,1.380712 -1.119288,2.5 -2.5,2.5 H 51 c -1.104569,0 -2,-0.895431 -2,-2 v -1 c 0,-1.10457 0.895431,-2 2,-2 z"
         fill="#fdd7ad"
         transform="rotate(180,53.5,31.5)" />
      <g
         fill="#f9c795"
         id="g1315">
        <path
           id="path1311"
           d="m 52,34 h 3.5 c 1.380712,0 2.5,1.119288 2.5,2.5 0,1.380712 -1.119288,2.5 -2.5,2.5 H 52 c -1.104569,0 -2,-0.895431 -2,-2 v -1 c 0,-1.104569 0.895431,-2 2,-2 z"
           transform="rotate(180,54,36.5)" />
        <path
           id="path1313"
           d="m 49,24 h 6.5 c 1.380712,0 2.5,1.119288 2.5,2.5 0,1.380712 -1.119288,2.5 -2.5,2.5 H 49 c -1.104569,0 -2,-0.895431 -2,-2 v -1 c 0,-1.10457 0.895431,-2 2,-2 z"
           transform="rotate(180,52.5,26.5)" />
      </g>
    </g>
  </g>
  <text
     xml:space="preserve"
     style="font-style:normal;font-variant:normal;font-weight:normal;font-stretch:normal;font-size:9.66666px;font-family:th;-inkscape-font-specification:th;opacity:0.8;fill:#b7c4c8;fill-rule:evenodd;stroke-width:0.0978655;paint-order:fill markers stroke"
     x="18.289371"
     y="57.816269"
     id="text392"><tspan
       sodipodi:role="line"
       id="tspan390"
       x="18.289371"
       y="57.816269"
       style="font-style:normal;font-variant:normal;font-weight:bold;font-stretch:normal;font-size:9.66666px;font-family:'TH SarabunPSK';-inkscape-font-specification:'TH SarabunPSK Bold';fill:#808080;stroke-width:0.0978655">การอ่าน</tspan></text>
</svg>
